img/ui/icons/Delete.svg

<svg width="25" height="25" viewBox="0 0 25 25" fill="none" xmlns="http://www.w3.org/2000/svg">
<path d="M4.78661 6.71262L6.89961 19.4756C6.99626 20.0599 7.2972 20.5909 7.74881 20.974C8.20042 21.3571 8.77338 21.5675 9.36561 21.5676H12.7136M19.4116 6.71262L17.2996 19.4756C17.203 20.0599 16.902 20.5909 16.4504 20.974C15.9988 21.3571 15.4258 21.5675 14.8336 21.5676H11.4856M10.1216 11.6156V16.6646M14.0776 11.6156V16.6646M2.84961 6.71262H21.3496M14.8766 6.71262V4.93262C14.8766 4.53479 14.7186 4.15326 14.4373 3.87196C14.156 3.59065 13.7744 3.43262 13.3766 3.43262H10.8226C10.4248 3.43262 10.0433 3.59065 9.76195 3.87196C9.48064 4.15326 9.32261 4.53479 9.32261 4.93262V6.71262H14.8766Z" stroke="black" stroke-width="1.5" stroke-linecap="round" stroke-linejoin="round"/>
</svg>

<svg width="25" height="25" fill="none" xmlns="http://www.w3.org/2000/svg"><path d="M4.787 6.713 6.9 19.476a2.5 2.5 0 0 0 2.466 2.092h3.348m6.698-14.855L17.3 19.476a2.5 2.5 0 0 1-2.466 2.092h-3.348m-1.364-9.952v5.049m3.956-5.05v5.05M2.85 6.713h18.5m-6.473 0v-1.78a1.5 1.5 0 0 0-1.5-1.5h-2.554a1.5 1.5 0 0 0-1.5 1.5v1.78h5.554Z" stroke="#000" stroke-width="1.5" stroke-linecap="round" stroke-linejoin="round"/></svg>
